svg/documents.svg

<?xml version="1.0" encoding="UTF-8" standalone="no"?>
<!-- Generator: Adobe Illustrator 15.1.0, SVG Export Plug-In . SVG Version: 6.00 Build 0)  -->

<svg
   version="1.1"
   id="Layer_4"
   x="0px"
   y="0px"
   width="283.465px"
   height="283.465px"
   viewBox="0 0 283.465 283.465"
   enable-background="new 0 0 283.465 283.465"
   xml:space="preserve"
   sodipodi:docname="documents.svg"
   inkscape:version="1.2.2 (b0a8486541, 2022-12-01)"
   xmlns:inkscape="http://www.inkscape.org/namespaces/inkscape"
   xmlns:sodipodi="http://sodipodi.sourceforge.net/DTD/sodipodi-0.dtd"
   xmlns="http://www.w3.org/2000/svg"
   xmlns:svg="http://www.w3.org/2000/svg"><defs
   id="defs515" /><sodipodi:namedview
   id="namedview513"
   pagecolor="#ffffff"
   bordercolor="#000000"
   borderopacity="0.25"
   inkscape:showpageshadow="2"
   inkscape:pageopacity="0.0"
   inkscape:pagecheckerboard="0"
   inkscape:deskcolor="#d1d1d1"
   showgrid="false"
   inkscape:zoom="1.4816644"
   inkscape:cx="169.06662"
   inkscape:cy="133.6335"
   inkscape:window-width="1920"
   inkscape:window-height="1015"
   inkscape:window-x="0"
   inkscape:window-y="0"
   inkscape:window-maximized="1"
   inkscape:current-layer="Layer_4" />
<path
   id="path504"
   d="M 33.613281 7.0878906 C 29.113286 7.0878906 25.46875 10.737379 25.46875 15.234375 L 25.46875 242.58789 C 25.46875 247.08489 29.113286 250.73242 33.613281 250.73242 L 40.558594 250.73242 L 40.558594 28.058594 C 40.560594 20.572601 46.64782 14.482422 54.132812 14.482422 L 173.39453 14.482422 L 168.38477 9.4726562 C 166.85277 7.9466578 164.78014 7.0878906 162.61914 7.0878906 L 33.613281 7.0878906 z M 54.132812 19.910156 C 49.632817 19.910156 45.986328 23.561598 45.986328 28.058594 L 45.986328 255.41211 C 45.986328 259.9091 49.632817 263.55664 54.132812 263.55664 L 61.074219 263.55664 L 61.076172 40.880859 C 61.076172 33.394867 67.164445 27.304688 74.648438 27.304688 L 193.91016 27.304688 L 188.90234 22.296875 C 187.36835 20.770877 185.29772 19.910156 183.13672 19.910156 L 54.132812 19.910156 z M 74.648438 32.734375 C 70.148442 32.734375 66.503906 36.383864 66.503906 40.880859 L 66.503906 268.23438 C 66.503906 272.73037 70.148442 276.37891 74.648438 276.37891 L 249.85156 276.37891 C 254.34956 276.37891 257.99414 272.73237 257.99414 268.23438 L 257.99414 87.074219 C 257.99414 84.914221 257.13623 82.843405 255.61523 81.316406 L 209.41797 35.119141 C 207.88697 33.593142 205.81429 32.734375 203.6543 32.734375 L 74.648438 32.734375 z M 205.50391 46.009766 L 246.49023 85.132812 L 205.57227 85.132812 L 205.50391 46.009766 z M 102.85352 76.078125 L 180.13086 76.078125 C 183.04186 76.078125 185.41992 78.450284 185.41992 81.363281 C 185.41992 84.277278 183.04186 86.648438 180.13086 86.648438 L 102.85547 86.648438 C 99.938472 86.648438 97.569313 84.277278 97.570312 81.363281 C 97.570312 78.449284 99.938519 76.078125 102.85352 76.078125 z M 105.89648 109.77148 L 220.14453 109.77148 C 223.88853 109.77148 226.92383 112.14064 226.92383 115.05664 C 226.92583 117.97264 223.88853 120.33594 220.14453 120.33594 L 105.89648 120.33594 C 102.15049 120.33594 99.111328 117.96964 99.111328 115.05664 C 99.111328 112.14264 102.15149 109.76948 105.89648 109.77148 z M 105.89648 148.53711 L 220.14453 148.53711 C 223.88853 148.53711 226.92783 150.90436 226.92383 153.81836 C 226.92583 156.73136 223.88853 159.09961 220.14453 159.09961 L 105.89648 159.09961 C 102.15049 159.09961 99.109375 156.73436 99.109375 153.81836 C 99.109375 150.90236 102.15049 148.53711 105.89648 148.53711 z M 105.89648 187.11523 L 220.14453 187.11523 C 223.88853 187.11523 226.92783 189.48244 226.92383 192.39844 C 226.92583 195.31043 223.88853 197.67578 220.14453 197.67578 L 105.89648 197.67578 C 102.15049 197.67578 99.109375 195.30843 99.109375 192.39844 C 99.109375 189.48044 102.15049 187.11523 105.89648 187.11523 z M 105.89648 225.91797 L 220.14453 225.91797 C 223.88653 225.91797 226.92783 228.28127 226.92383 231.19727 C 226.92383 234.11126 223.88853 236.48438 220.14453 236.48438 L 105.89648 236.48438 C 102.15049 236.48438 99.109375 234.11526 99.109375 231.19727 C 99.109375 228.27927 102.15049 225.91797 105.89648 225.91797 z " />
</svg>

<?xml version="1.0" encoding="utf-8"?>
<!-- Generator: Adobe Illustrator 15.1.0, SVG Export Plug-In . SVG Version: 6.00 Build 0)  -->
<!DOCTYPE svg PUBLIC "-//W3C//DTD SVG 1.1//EN" "http://www.w3.org/Graphics/SVG/1.1/DTD/svg11.dtd">
<svg version="1.1" id="Layer_4" xmlns="http://www.w3.org/2000/svg" xmlns:xlink="http://www.w3.org/1999/xlink" x="0px" y="0px"
	 width="283.465px" height="283.465px" viewBox="0 0 283.465 283.465" enable-background="new 0 0 283.465 283.465"
	 xml:space="preserve">
<g>
	<path d="M54.132,14.482h119.263l-5.011-5.009c-1.532-1.526-3.603-2.386-5.764-2.386H33.614c-4.5,0-8.145,3.65-8.145,8.147v227.354
		c0,4.497,3.645,8.145,8.145,8.145h6.944V28.058C40.56,20.572,46.647,14.482,54.132,14.482z"/>
	<path d="M61.076,40.881c0-7.486,6.089-13.576,13.573-13.576H193.91l-5.008-5.008c-1.534-1.526-3.605-2.386-5.766-2.386H54.132
		c-4.5,0-8.145,3.65-8.145,8.147v227.354c0,4.497,3.645,8.145,8.145,8.145l0,0h6.943L61.076,40.881L61.076,40.881z"/>
	<path d="M209.418,35.12c-1.531-1.526-3.604-2.386-5.764-2.386H74.649c-4.5,0-8.146,3.65-8.146,8.147v227.354
		c0,4.496,3.646,8.144,8.146,8.144h175.202c4.498,0,8.144-3.646,8.144-8.144V87.074c0-2.16-0.858-4.23-2.379-5.757L209.418,35.12z
		 M105.896,236.484c-3.746,0-6.786-2.369-6.786-5.287s3.04-5.28,6.786-5.28h114.248c3.742,0,6.783,2.364,6.779,5.28
		c0,2.914-3.035,5.287-6.779,5.287H105.896z M180.13,86.648h-77.274c-2.917,0-5.287-2.37-5.286-5.284
		c0-2.914,2.369-5.285,5.284-5.285h77.276c2.911,0,5.289,2.372,5.289,5.285C185.419,84.278,183.041,86.648,180.13,86.648z
		 M220.145,197.675H105.896c-3.746,0-6.786-2.366-6.786-5.276c0-2.918,3.04-5.283,6.786-5.283h114.248
		c3.744,0,6.783,2.367,6.779,5.283C226.925,195.311,223.889,197.675,220.145,197.675z M220.145,159.1H105.896
		c-3.746,0-6.786-2.365-6.786-5.281s3.04-5.282,6.786-5.282h114.248c3.744,0,6.783,2.368,6.779,5.282
		C226.925,156.732,223.889,159.1,220.145,159.1z M220.145,120.336H105.896c-3.746,0-6.784-2.367-6.784-5.28
		c0-2.914,3.039-5.286,6.784-5.284h114.248c3.744,0,6.779,2.368,6.779,5.284C226.925,117.972,223.889,120.336,220.145,120.336z
		 M205.572,85.132l-0.068-39.123l40.987,39.123H205.572z"/>
</g>
</svg>
